src/pos-icons/hydro-power.svg

<svg height="24" viewBox="0 0 24 24" width="24" xmlns="http://www.w3.org/2000/svg"><path d="m17.12 3.55a2 2 0 0 0 -1.92 1.4l-.8 2.55a3 3 0 0 0 -1.07.24l-1.83-1.97-1.33-1.48a2 2 0 0 0 -.12 2.83l1.81 1.97a3 3 0 0 0 -.22.51 3 3 0 0 0 -.11.53l-2.61.58-1.96.44a2 2 0 0 0 2.39 1.52l2.61-.59a3 3 0 0 0 .74.81l-.8 2.55-.6 1.91a2 2 0 0 0 2.5-1.31l.81-2.54a3 3 0 0 0 1.07-.24l1.82 1.97 1.33 1.47a2 2 0 0 0 .13-2.82l-1.81-1.97a3 3 0 0 0 .21-.51 3 3 0 0 0 .14-.54l2.59-.58 1.95-.43a2 2 0 0 0 -2.38-1.52l-2.61.58a3 3 0 0 0 -.74-.8l.8-2.56.6-1.9a2 2 0 0 0 -.59-.1m-2.56 5.45a1.5 1.5 0 0 1 .39.07 1.5 1.5 0 0 1 .98 1.88 1.5 1.5 0 0 1 -1.88.98 1.5 1.5 0 0 1 -.98-1.88 1.5 1.5 0 0 1 1.48-1.05m-6.55 4.67c-1.22.86-2.61 1.33-4 1.33h-2v2h2c1.37 0 2.74-.35 4-1 .77.4 1.58.66 2.41.81l.53-1.67.09-.26c-1.06-.15-2.1-.56-3.03-1.21m12.45 1.33c.05.7-.12 1.41-.54 2h.09 2v-2zm-12.45 2.67c-1.22.86-2.61 1.33-4 1.33h-2v2h2c1.37 0 2.74-.35 4-1 2.5 1.3 5.5 1.3 8 0 1.26.65 2.62 1 4 1h2v-2h-2c-1.39 0-2.78-.47-4-1.33-2.44 1.71-5.56 1.71-8 0z"/></svg>

<?xml version="1.0" encoding="UTF-8"?><!DOCTYPE svg PUBLIC "-//W3C//DTD SVG 1.1//EN" "http://www.w3.org/Graphics/SVG/1.1/DTD/svg11.dtd"><svg xmlns="http://www.w3.org/2000/svg" xmlns:xlink="http://www.w3.org/1999/xlink" version="1.1" id="mdi-hydro-power" width="24" height="24" viewBox="0 0 24 24"><path d="M17.12 3.55A2 2 0 0 0 15.2 4.95L14.4 7.5A3 3 0 0 0 13.33 7.74L11.5 5.77L10.17 4.29A2 2 0 0 0 10.05 7.12L11.86 9.09A3 3 0 0 0 11.64 9.6A3 3 0 0 0 11.53 10.13L8.92 10.71L6.96 11.15A2 2 0 0 0 9.35 12.67L11.96 12.08A3 3 0 0 0 12.7 12.89L11.9 15.44L11.3 17.35A2 2 0 0 0 13.8 16.04L14.61 13.5A3 3 0 0 0 15.68 13.26L17.5 15.23L18.83 16.7A2 2 0 0 0 18.96 13.88L17.15 11.91A3 3 0 0 0 17.36 11.4A3 3 0 0 0 17.5 10.86L20.09 10.28L22.04 9.85A2 2 0 0 0 19.66 8.33L17.05 8.91A3 3 0 0 0 16.31 8.11L17.11 5.55L17.71 3.65A2 2 0 0 0 17.12 3.55M14.56 9A1.5 1.5 0 0 1 14.95 9.07A1.5 1.5 0 0 1 15.93 10.95A1.5 1.5 0 0 1 14.05 11.93A1.5 1.5 0 0 1 13.07 10.05A1.5 1.5 0 0 1 14.55 9M8 13.67C6.78 14.53 5.39 15 4 15H2V17H4C5.37 17 6.74 16.65 8 16C8.77 16.4 9.58 16.66 10.41 16.81L10.94 15.14L11.03 14.88C9.97 14.73 8.93 14.32 8 13.67M20.45 15C20.5 15.7 20.33 16.41 19.91 17C19.93 17 19.97 17 20 17H22V15H20.45M8 17.67C6.78 18.53 5.39 19 4 19H2V21H4C5.37 21 6.74 20.65 8 20C10.5 21.3 13.5 21.3 16 20C17.26 20.65 18.62 21 20 21H22V19H20C18.61 19 17.22 18.53 16 17.67C13.56 19.38 10.44 19.38 8 17.67Z" /></svg>
